F[BALLADE
CUT[Die wiedergefundene Schwester (Suedeli - Ballade)
    Es wollt en Herr usriten]
CNR[mit sinen Edelliten,]
REG[Mitteleuropa, Schweiz, Greyerz, Brienzwyler]
SRC[4, S. 1
    ????]
KEY[Q0072A 08  D 4/4]
MEL[3_  5_3_4_2_  3_1_2_
    1_  1_3_4_3_  2_-7_1_
    3_  5_3_4_2_  3_112_
    1_  1_3_4_33  2_-7_1_ //] >>
FCT[Ballade, Entfuehrung, Adelige als Dienstmagd, Rueckkehr]
